X:1
T:Title
%%score [ ( 1 2 ) ( 3 4 ) ] { ( 5 6 ) | ( 7 8 ) }
L:1/8
Q:1/4=120
M:4/4
K:D
V:1 treble nm="Midi_74"
V:2 treble 
V:3 bass nm="Midi_74"
V:4 bass 
V:5 treble nm="Org."
V:6 treble 
V:7 bass 
V:8 bass 
V:1
 A8 | d4 d4 |{d} c8 || E8 | A4 A4 | B4 ^G4 | A8 || F8 | B4 B4 |{B} ^A8 || =A8 | %11
 d4"^William Henry Havergal\n(1793-1870)" d4 | e4 c4 | d8 |] %14
V:2
 F8 | (D2 E2) (F2 ^G2) | A8 || E8 | (C2 D2) (E2 =G2) | F4 D4 | C8 || D8 | (B,2 C2) (D2 E2) | F8 || %10
 D8 | (D2 E2) (F2 A2) | G4 G4 | F8 |] %14
V:3
 A,8 | (B,2 C2) D4 | E8 || A,8 | (A,2 B,2) (C2 E2) | D4 B,4 | A,8 || A,8 | (G,2 A,2)"^," B,4 | %9
 C8 || A,8 | (F,2 G,2) (A,2 =C2) | B,4 A,4 | A,8 |] %14
V:4
 D,8 | B,,4 B,,4 | A,,8 || C,8 | A,,4 A,,4 | D,4 E,4 | A,,8 || D,8 | G,4 G,4 | F,8 || F,8 | %11
 D,4 D,4 | G,4 A,4 | D,8 |] %14
V:5
 A8 | d4 d4 |{d} c8 || E8 | A4 A4 | B4 ^G4 | A8 || F8 | B4 B4 |{B} ^A8 || =A8 | d4 d4 | e4 c4 | %13
 d8 |] %14
V:6
 [DF]8 | D2 E2 F2 ^G2 | [EA]8 || [A,E]8 | [A,C]2 [B,D]2 [CE]2 =G2 | [DF]4 D4 | C8 || D8 | %8
 B,2 C2 D2 E2 | [CF]8 || D8 | D2 E2 F2 A2 | G4 G4 | F8 |] %14
V:7
 x8 | x8 | x8 || x8 | x8 | x4 B,4 | A,8 || A,8 | x8 | x8 || A,8 | (F,2 G,2) (A,2 =C2) | B,4 A,4 | %13
 A,8 |] %14
V:8
 D,8 | B,,4 B,,4 | A,,8 || C,8 | A,,4 A,,4 | D,4 E,4 | A,,8 || D,8 | G,4 G,4 | F,8 || F,8 | %11
 D,4 D,4 | G,4 A,4 | D,8 |] %14

